X:1
T:Title
%%score { ( 1 3 ) | ( 2 4 ) }
L:1/8
M:4/4
K:C
V:1 treble nm="Grand Piano"
V:3 treble 
V:2 bass 
V:4 bass 
V:1
 z4 z2[Q:1/4=108] [EG]2 | [Ec]3 [Ec] [Gc]2 [Fc]2 | [Ec]4 [EG]2 [CE][CE] | %3
 [CF]2 [B,A]2 [CG]2 [DF]2 | [CE]6 [EG]2 | [Ec]3 [Ec] [Gc]2 [Fc]2 | [Ec]4 z4 | %7
 [^Fd]2 [Fc]2 [FB]2 [FA]2 | B6 G2 | [DF]3 [^CE] [DF]2 [B,FA]2 | [EG]4 z4 | %11
 [Ec]2 [Ec]2 [Ec]2 [Ec]2 | B6 A2 | G3 G A2 B2 | d2 c2 B2 AA | G2 G2 A2 B2 |[M:3/4] [Ec]6 | %17
[M:1/4] [Ec]2 |[M:4/4] B2 B2 A2 G2 | [Ec]6 [Ec]2 | B2 B2 A2 G2 | [Ec]6 z2 | A2 A2 B2 B2 | %23
 c2 c2 d2 d2 | z4 B4 |[M:3/4] [Ec]6 |] %26
V:2
 z4 z2 [C,G,]2 | [C,G,]3 [C,G,] [C,B,]2 [C,A,]2 | [C,G,]4 [C,C]2 [C,G,]2 | %3
 [D,G,]2 [G,,G,]2 [A,,G,]2 [B,,G,]2 | [C,G,]6 [C,C]2 | [C,G,]3 [C,G,] [C,B,]2 [C,A,]2 | %6
 G,2 z2[K:treble] [F,CF]2 FF | [D,A,]2 [D,A,]2 [D,D]2 [D,D]2 | [G,DG]6 [G,E]2 | %9
 [G,,G,]3 [G,,G,] [G,,G,]2 G,,2 | z2 z D [C,G,C]2 [C,G,]2 | [C,G,]2 [C,G,]2 [A,,A,]2 [A,,A,]2 | %12
 [E,^G,D]6 [F,A,C]2 | [G,CE]3 [G,CE] [G,B,F]2 [G,DF]2 | [A,CE]4 [F,CG]2 FF | %15
 [G,CE]2 [G,CE]2 [G,B,F]2 [G,F]2 |[M:3/4][K:bass] [C,G,]6 |[M:1/4] G,2 | %18
[M:4/4][K:treble] [G,B,D]2 [G,DF]2 [G,CF]2 [G,B,F]2 | [C,C]2 G,2 E,2 .[C,G,]2 | %20
 [G,D]2[K:treble] [G,CF]2 [G,CF]2 [G,B,F]2 | [C,C]2 G,2 E,2 C,2 | %22
 [F,CF]2 [F,A,C]2 [E,^G,E]2 [E,G,E]2 | [A,E]2 [A,E]2 [F,A,F]2 [F,^G,F]2 | [G,E]4 [G,,G,]4 | %25
[M:3/4] [C,G,]6 |] %26
V:3
 x8 | x8 | x8 | x8 | x8 | x8 | z2 C2 A2 AA | x8 | x8 | x8 | C3- [CF] E2 [EG][EG] | x8 | x8 | x8 | %14
 x8 | x8 |[M:3/4] x6 |[M:1/4] z E, |[M:4/4] x8 | z4 G,2 z E, | x8 | z4 G,2 [CEG]2 | x8 | x8 | %24
 c4 D2 F2 |[M:3/4] x6 |] %26
V:4
 x8 | x8 | x8 | x8 | x8 | x8 | C,4[K:treble] z2 [F,A,]2 | x8 | x8 | x8 | C,4 z4 | x8 | x8 | x8 | %14
 z4 z2 [F,C]2 | x8 |[M:3/4][K:bass] x6 |[M:1/4] C, z |[M:4/4][K:treble] x8 | x8 | x2[K:treble] x6 | %21
 x8 | x8 | x8 | x8 |[M:3/4] x6 |] %26

